X:1
T: The House of Drummmuir
C:Alexander Walker
R:Reel
Q: 232
K:D
M:4/4
L:1/8
|:c|d2 fe dA Bd|AF DF E3c|d2 fe dA BG|FD EC D3c|
d2 fe dA Bd|AF DF E3c|d2 fe dA BG|FD EC D3g|
fd d2 fd ad|ge e2 ge be|fd d2 Bd AF|GB Ac dD Dg|
fd d2 fd ad|ge e2 ge be|fa ec df AF|GB Ac dD D:|
